X:1
T:Alas that e'er I knew this hour - Webbe
T:#
%%score 1 2
L:1/8
Q:1/4=90
M:4/4
K:Bb
V:1 treble-8 nm="Alto" snm="A"
V:2 treble-8 nm="Tenor" snm="T"
V:1
"^Alas that e'er I knew this hour""^Samuel Webbe \n(1740-1816)" F | A2 c2 e3 A | B2 d2 f4- | f8 | %4
w: A-|las that e'er I|knew this hour,||
 f8 |[M:4/4][K:treble-8] f3 e (df) (dB) | c2 Td2 e4- | e8 | e3 e d2 fe | dcB_A G4- | %10
w: |Can then Da\- * mon *|be se- vere?||* A- las! can then|Da- mon be se- vere?|
 G4 z c[Q:1/4=45] !fermata!F2 ||[M:6/8][Q:1/4=120] c | d3 z2 f | e3 z2 c | %14
w: * Yes, yes.|From|love, from|love the|
[M:6/8][K:treble-8][Q:1/4=120][Q:1/4=120][Q:1/4=120][Q:1/4=120] c3 e3 | d3 z2 f | f3 e3 | d3 c3 | %18
w: con- test|rose, From|love's too|jea- lous|
 B6 | z2 d d2 d | c2 c =e2 e | f3- f2 A | (A3- ABc | d3) f3 | (f3 T=e2) f | f3 z2 f | =e3- e2 e | %27
w: eye,|A tran- sient|dis- cord soon to|close * In|sweet\- * * *|* est|har\- * mo-|ny, A|tran\- * sient|
 f3 c3 | =e3- e2 e | f3- f2 f | f3 f3 | d2 =e f2 d | c3 B3 | A2 G F2 z | z2 f f2 e | d2 B f3- | %36
w: dis- cord|soon * to|close * In|sweet- est|har- mo- ny, In|sweet- est|har- mo- ny,|the con- test|rose From love's|
 f2 d e2 f | g3- g2 g | e3 z3 | z c2 c2 =e | f3- f2 F | (GAB cd)e | (FGA) (Bcd) | (EFG AB)c | %44
w: * too jea- lous|eye, * From|love|the con- test|rose, * A|tran\- * * * * sient|dis\- * * cord * *|soon * * * * to|
 d3- d2 d | d3- d2 d | d2 c c2 c | e3- e2 e | e2 d d2 d | (d6 | e6 | f6 | g3)[Q:1/4=118] e3 | %53
w: close, * In|sweet\- * est|har- mo- ny, in|sweet\- * est|har- mo- ny, in|sweet\-|||* est|
[Q:1/4=112] (d6 |[Q:1/4=107] c3-[Q:1/4=105] c2)[Q:1/4=103] TB |[Q:1/4=101] B3- B2 |] %56
w: har\-|* * mo-|ny. *|
V:2
 z | z8 | z4 z2 z F | A2 c2 e2 z c | d2 B2 F2 z F |[M:4/4][K:treble-8] A2 z F B2 z B | %6
w: ||My|heart re- lents, I|feel her pow'r, My|heart re- lents, I|
 (B_A) (GF) E4 | c3 B (Ac) (AF) | G2 A2 B4- | B4 z BEg | edcB !fermata!A4 ||[M:6/8] F | B3 z2 d | %13
w: feel * her * pow'r.|Can then Chlo\- * ra *|be sin- cere?|* No, no, can|Chlo- ra be sin- cere?|From|love, from|
 c3 z2 F |[M:6/8][K:treble-8] A3 c3 | B3 z2 d | d3 c3 | B3 A3 | B2 B, D2 F | B3 B3 | B3- B2 B | %21
w: love the|con- test|rose, From|love's too|jea- lous|eye, A tran- sient|dis- cord|soon * to|
 A3- A2 F | (F3- FGA | B3) A3 | G3- G2 G | F3 z2 F | B3 G3 | A3 A3 | (G3- GA)B | A3- A2 A | A3 F3 | %31
w: close * In|sweet\- * * *|* est|har\- * mo-|ny, A|tran- sient|dis- cord|soon * * to|close * In|sweet- est|
 B2 B A2 B | A3 G3 | F2 F F2 F | G2 G A2 A | B3- B2 B | B2 _A G2 F | E2 B e3 | z2 c c2 B | %39
w: har- mo- ny, In|sweet- est|har- mo- ny, From|love the con- test|rose, * From|love's too jea- lous|eye, From love|the con- test|
 A2 A A2 G | F3- F2 F | f3 e3 | e3 d3 | d3 c3 | B3- B2 B | B3- B2 B | B2 A A2 F | c3- c2 c | %48
w: rose, the con- test|rose, * A|tran- sient|dis- cord|soon to|close * In|sweet\- * est|har- mo- ny, in|sweet\- * est|
 c2 B B2 B | (B6 | c6 | d6 | e3) c3 | (B6 | A3- A2) A | B3- B2 |] %56
w: har- mo- ny, in|sweet\-|||* est|har\-|* * mo-|ny. *|

